contributed-vectors/hidden_folks.svg

<?xml version="1.0" encoding="UTF-8" standalone="no"?>
<svg
   xmlns:dc="http://purl.org/dc/elements/1.1/"
   xmlns:cc="http://creativecommons.org/ns#"
   xmlns:rdf="http://www.w3.org/1999/02/22-rdf-syntax-ns#"
   xmlns:svg="http://www.w3.org/2000/svg"
   xmlns="http://www.w3.org/2000/svg"
   xmlns:sodipodi="http://sodipodi.sourceforge.net/DTD/sodipodi-0.dtd"
   xmlns:inkscape="http://www.inkscape.org/namespaces/inkscape"
   viewBox="0 0 192 192"
   version="1.1"
   id="svg16"
   sodipodi:docname="hidden_folks.svg"
   inkscape:version="0.92.4 (5da689c313, 2019-01-14)">
  <metadata
     id="metadata20">
    <rdf:RDF>
      <cc:Work
         rdf:about="">
        <dc:format>image/svg+xml</dc:format>
        <dc:type
           rdf:resource="http://purl.org/dc/dcmitype/StillImage" />
        <dc:title></dc:title>
      </cc:Work>
    </rdf:RDF>
  </metadata>
  <sodipodi:namedview
     pagecolor="#ffffff"
     bordercolor="#666666"
     borderopacity="1"
     objecttolerance="10"
     gridtolerance="10"
     guidetolerance="10"
     inkscape:pageopacity="0"
     inkscape:pageshadow="2"
     inkscape:window-width="1920"
     inkscape:window-height="1017"
     id="namedview18"
     showgrid="true"
     inkscape:zoom="2.4583333"
     inkscape:cx="98.284118"
     inkscape:cy="90.883266"
     inkscape:window-x="-8"
     inkscape:window-y="-8"
     inkscape:window-maximized="1"
     inkscape:current-layer="svg16"
     inkscape:snap-global="true">
    <inkscape:grid
       type="xygrid"
       id="grid827"
       spacingx="4"
       spacingy="4" />
  </sodipodi:namedview>
  <defs
     id="defs4">
    <style
       id="style2">.a{fill:none;stroke:#b1b5bd;stroke-linecap:round;stroke-linejoin:round;isolation:isolate;opacity:0.63;}</style>
  </defs>
  <circle
     class="a"
     cx="96"
     cy="96"
     r="88"
     id="circle8"
     style="fill:#ffffff;stroke:none;opacity:1" />
  <circle
     class="a"
     cx="96"
     cy="96"
     r="36.5"
     id="circle10" />
  <path
     style="color:#000000;font-style:normal;font-variant:normal;font-weight:normal;font-stretch:normal;font-size:medium;line-height:normal;font-family:sans-serif;font-variant-ligatures:normal;font-variant-position:normal;font-variant-caps:normal;font-variant-numeric:normal;font-variant-alternates:normal;font-feature-settings:normal;text-indent:0;text-align:start;text-decoration:none;text-decoration-line:none;text-decoration-style:solid;text-decoration-color:#000000;letter-spacing:normal;word-spacing:normal;text-transform:none;writing-mode:lr-tb;direction:ltr;text-orientation:mixed;dominant-baseline:auto;baseline-shift:baseline;text-anchor:start;white-space:normal;shape-padding:0;clip-rule:nonzero;display:inline;overflow:visible;visibility:visible;opacity:1;isolation:auto;mix-blend-mode:normal;color-interpolation:sRGB;color-interpolation-filters:linearRGB;solid-color:#000000;solid-opacity:1;vector-effect:none;fill:#56595b;fill-opacity:1;fill-rule:nonzero;stroke:none;stroke-width:24;stroke-linecap:round;stroke-linejoin:round;stroke-miterlimit:4;stroke-dasharray:none;stroke-dashoffset:0;stroke-opacity:1;color-rendering:auto;image-rendering:auto;shape-rendering:auto;text-rendering:auto;enable-background:accumulate"
     d="M 95.875 83.878906 A 12.0012 12.0012 0 0 0 87.515625 104.48438 L 149.10547 166.07422 A 88 88 0 0 0 166.05078 149.08203 L 104.48438 87.515625 A 12.0012 12.0012 0 0 0 95.875 83.878906 z "
     id="path845" />
  <path
     style="color:#000000;font-style:normal;font-variant:normal;font-weight:normal;font-stretch:normal;font-size:medium;line-height:normal;font-family:sans-serif;font-variant-ligatures:normal;font-variant-position:normal;font-variant-caps:normal;font-variant-numeric:normal;font-variant-alternates:normal;font-feature-settings:normal;text-indent:0;text-align:start;text-decoration:none;text-decoration-line:none;text-decoration-style:solid;text-decoration-color:#000000;letter-spacing:normal;word-spacing:normal;text-transform:none;writing-mode:lr-tb;direction:ltr;text-orientation:mixed;dominant-baseline:auto;baseline-shift:baseline;text-anchor:start;white-space:normal;shape-padding:0;clip-rule:nonzero;display:inline;overflow:visible;visibility:visible;opacity:1;isolation:auto;mix-blend-mode:normal;color-interpolation:sRGB;color-interpolation-filters:linearRGB;solid-color:#000000;solid-opacity:1;vector-effect:none;fill:#ffffff;fill-opacity:1;fill-rule:nonzero;stroke:none;stroke-width:16;stroke-linecap:round;stroke-linejoin:round;stroke-miterlimit:4;stroke-dasharray:none;stroke-dashoffset:0;stroke-opacity:1;color-rendering:auto;image-rendering:auto;shape-rendering:auto;text-rendering:auto;enable-background:accumulate"
     d="M 95.916016 87.919922 A 8.0008 8.0008 0 0 0 90.34375 101.65625 L 152.25586 163.56836 A 88 88 0 0 0 163.60742 152.29492 L 101.65625 90.34375 A 8.0008 8.0008 0 0 0 95.916016 87.919922 z "
     id="path845-7" />
  <path
     style="opacity:1;vector-effect:none;fill:#56595b;fill-opacity:1;fill-rule:evenodd;stroke:none;stroke-width:4;stroke-linecap:round;stroke-linejoin:round;stroke-miterlimit:4;stroke-dasharray:none;paint-order:stroke fill markers"
     d="M 95.875 83.878906 A 12.0012 12.0012 0 0 0 87.515625 104.48438 L 124.40234 141.37109 C 131.4006 137.24745 137.24745 131.4006 141.37109 124.40234 L 104.48438 87.515625 A 12.0012 12.0012 0 0 0 95.875 83.878906 z "
     id="rect835-5" />
  <rect
     style="opacity:1;vector-effect:none;fill:#56595b;fill-opacity:1;fill-rule:evenodd;stroke:none;stroke-width:4;stroke-linecap:round;stroke-linejoin:round;stroke-miterlimit:4;stroke-dasharray:none;paint-order:stroke fill markers"
     id="rect835"
     width="96"
     height="96"
     x="48"
     y="48"
     ry="48" />
  <rect
     style="opacity:1;vector-effect:none;fill:#ffffff;fill-opacity:1;fill-rule:evenodd;stroke:none;stroke-width:4;stroke-linecap:round;stroke-linejoin:round;stroke-miterlimit:4;stroke-dasharray:none;paint-order:stroke fill markers"
     id="rect833"
     width="88"
     height="88"
     x="52"
     y="52"
     ry="44" />
  <rect
     style="opacity:1;vector-effect:none;fill:#56595b;fill-opacity:1;fill-rule:evenodd;stroke:none;stroke-width:4;stroke-linecap:round;stroke-linejoin:round;stroke-miterlimit:4;stroke-dasharray:none;paint-order:stroke fill markers"
     id="rect829"
     width="80"
     height="80"
     x="56"
     y="56"
     ry="40" />
  <rect
     style="opacity:1;vector-effect:none;fill:#ffffff;fill-opacity:1;fill-rule:evenodd;stroke:none;stroke-width:4;stroke-linecap:round;stroke-linejoin:round;stroke-miterlimit:4;stroke-dasharray:none;paint-order:stroke fill markers"
     id="rect831"
     width="72"
     height="72"
     x="60"
     y="60"
     ry="36" />
  <path
     style="opacity:1;vector-effect:none;fill:#56595b;fill-opacity:1;fill-rule:evenodd;stroke:none;stroke-width:4;stroke-linecap:round;stroke-linejoin:round;stroke-miterlimit:4;stroke-dasharray:none;paint-order:stroke fill markers"
     d="M 84.757812 66.021484 C 76.104139 69.250497 69.250497 76.104139 66.021484 84.757812 L 69.767578 86.162109 C 72.592993 78.590901 78.590901 72.592993 86.162109 69.767578 L 84.757812 66.021484 z "
     id="rect837" />
  <path
     style="opacity:1;vector-effect:none;fill:#56595b;fill-opacity:1;fill-rule:evenodd;stroke:none;stroke-width:4;stroke-linecap:round;stroke-linejoin:round;stroke-miterlimit:4;stroke-dasharray:none;paint-order:stroke fill markers"
     d="M 145.39648 128.42773 C 141.25341 135.41302 135.38814 141.24153 128.37695 145.3457 L 132.37695 149.3457 C 139.38814 145.24153 145.25341 139.41302 149.39648 132.42773 L 145.39648 128.42773 z "
     id="rect835-5-9" />
  <path
     style="opacity:1;vector-effect:none;fill:#56595b;fill-opacity:1;fill-rule:evenodd;stroke:none;stroke-width:4;stroke-linecap:round;stroke-linejoin:round;stroke-miterlimit:4;stroke-dasharray:none;paint-order:stroke fill markers"
     d="m 84,116 v 14.87228 c 1.300115,0.45687 2.636043,0.83766 4,1.14649 V 116 Z m 8,0 v 16.68673 c 1.313271,0.14524 2.646566,0.22852 4,0.22852 V 116 Z m 8,0 v 16.69064 c 1.35926,-0.14902 2.69162,-0.38101 4,-0.67578 V 116 Z m 8,0 v 14.87033 c 1.37289,-0.48238 2.70974,-1.04147 4,-1.67969 V 116 Z"
     id="rect960"
     inkscape:connector-curvature="0"
     sodipodi:nodetypes="cccccccccccccccccccc" />
  <path
     style="fill:#ffffff;stroke:#56595b;stroke-width:4;stroke-linecap:round;stroke-linejoin:round;stroke-miterlimit:4;stroke-dasharray:none;stroke-opacity:1"
     d="m 75.559322,93.559322 c 0,0 -3.676746,-2.839006 -0.20339,-6.711864 2.133585,-2.378988 5.796611,1.525423 5.796611,1.525423 l 8.949152,8.033899 7.830509,1.423728 7.830506,-2.338983 c 0,0 4.73172,1.635542 8.23729,6.610165 1.50848,2.14063 2.86839,4.70338 2.84746,7.32204 -0.008,0.98827 -1.11865,2.74576 -1.11865,2.74576 0,0 4.23598,5.62584 0.81356,7.62712 -1.08271,0.63312 -3.55932,-1.22034 -3.55932,-1.22034 l -2.0339,3.55932 c 0,0 -5.97197,1.73142 -11.288133,1.52543 C 88,123.20919 85.986846,119.00878 85.986846,119.00878 c 0,0 -1.986846,-10.04567 0.453832,-16.29692 -1.325984,-2.752845 -7.016949,-5.898301 -7.016949,-5.898301 l -0.305085,-1.830508 z"
     id="path954"
     inkscape:connector-curvature="0"
     sodipodi:nodetypes="csccccsscsccsccccc" />
  <path
     style="fill:none;stroke:#56595b;stroke-width:4;stroke-linecap:round;stroke-linejoin:round;stroke-miterlimit:4;stroke-dasharray:none;stroke-opacity:1"
     d="m 112.60975,118.79647 c 0,0 -1.1215,-4.13001 -1.94154,-5.89655 -1.50519,-3.24247 -3.23592,-5.96846 -3.23592,-5.96846"
     id="path958"
     inkscape:connector-curvature="0"
     sodipodi:nodetypes="csc" />
  <rect
     style="opacity:1;vector-effect:none;fill:#56595b;fill-opacity:1;fill-rule:evenodd;stroke:none;stroke-width:16;stroke-linecap:round;stroke-linejoin:round;stroke-miterlimit:4;stroke-dasharray:none;paint-order:stroke fill markers"
     id="rect950"
     width="20"
     height="20"
     x="88"
     y="80"
     ry="10" />
  <path
     style="opacity:1;vector-effect:none;fill:#ffffff;fill-opacity:1;fill-rule:evenodd;stroke:none;stroke-width:16;stroke-linecap:round;stroke-linejoin:round;stroke-miterlimit:4;stroke-dasharray:none;paint-order:stroke fill markers"
     d="M 96 84.347656 C 93.667133 85.168906 92 87.379344 92 90 C 92 92.620656 93.667133 94.831094 96 95.652344 C 98.332867 94.831094 100 92.620656 100 90 C 100 87.379344 98.332867 85.168906 96 84.347656 z "
     id="rect952" />
  <path
     style="fill:none;stroke:#56595b;stroke-width:4;stroke-linecap:round;stroke-linejoin:round;stroke-opacity:1;stroke-miterlimit:4;stroke-dasharray:none"
     d="m 79.118644,94.983051 3.792622,-4.950246"
     id="path1027"
     inkscape:connector-curvature="0" />
  <path
     style="fill:none;stroke:#56595b;stroke-width:4;stroke-linecap:round;stroke-linejoin:miter;stroke-opacity:1;stroke-miterlimit:4;stroke-dasharray:none"
     d="M 115.72881,112.16949 112,114.48192"
     id="path1029"
     inkscape:connector-curvature="0" />
</svg>

<svg xmlns="http://www.w3.org/2000/svg" id="svg16" version="1.1" viewBox="0 0 192 192"><defs id="defs4"><style id="style2">.a{fill:none;stroke:#b1b5bd;stroke-linecap:round;stroke-linejoin:round;isolation:isolate;opacity:.63}</style></defs><circle id="circle8" cx="96" cy="96" r="88" class="a" style="fill:#fff;stroke:none;opacity:1"/><circle id="circle10" cx="96" cy="96" r="36.5" class="a"/><path id="path845" d="M95.875 83.879a12.001 12.001 0 0 0-8.36 20.605l61.59 61.59a88 88 0 0 0 16.946-16.992l-61.567-61.566a12.001 12.001 0 0 0-8.609-3.637z" style="color:#000;font-style:normal;font-variant:normal;font-weight:400;font-stretch:normal;font-size:medium;line-height:normal;font-family:sans-serif;font-variant-ligatures:normal;font-variant-position:normal;font-variant-caps:normal;font-variant-numeric:normal;font-variant-alternates:normal;font-feature-settings:normal;text-indent:0;text-align:start;text-decoration:none;text-decoration-line:none;text-decoration-style:solid;text-decoration-color:#000;letter-spacing:normal;word-spacing:normal;text-transform:none;writing-mode:lr-tb;direction:ltr;text-orientation:mixed;dominant-baseline:auto;baseline-shift:baseline;text-anchor:start;white-space:normal;shape-padding:0;clip-rule:nonzero;display:inline;overflow:visible;visibility:visible;opacity:1;isolation:auto;mix-blend-mode:normal;color-interpolation:sRGB;color-interpolation-filters:linearRGB;solid-color:#000;solid-opacity:1;vector-effect:none;fill:#56595b;fill-opacity:1;fill-rule:nonzero;stroke:none;stroke-width:24;stroke-linecap:round;stroke-linejoin:round;stroke-miterlimit:4;stroke-dasharray:none;stroke-dashoffset:0;stroke-opacity:1;color-rendering:auto;image-rendering:auto;shape-rendering:auto;text-rendering:auto;enable-background:accumulate"/><path id="path845-7" d="M95.916 87.92a8 8 0 0 0-5.572 13.736l61.912 61.912a88 88 0 0 0 11.351-11.273l-61.95-61.951a8 8 0 0 0-5.741-2.424z" style="color:#000;font-style:normal;font-variant:normal;font-weight:400;font-stretch:normal;font-size:medium;line-height:normal;font-family:sans-serif;font-variant-ligatures:normal;font-variant-position:normal;font-variant-caps:normal;font-variant-numeric:normal;font-variant-alternates:normal;font-feature-settings:normal;text-indent:0;text-align:start;text-decoration:none;text-decoration-line:none;text-decoration-style:solid;text-decoration-color:#000;letter-spacing:normal;word-spacing:normal;text-transform:none;writing-mode:lr-tb;direction:ltr;text-orientation:mixed;dominant-baseline:auto;baseline-shift:baseline;text-anchor:start;white-space:normal;shape-padding:0;clip-rule:nonzero;display:inline;overflow:visible;visibility:visible;opacity:1;isolation:auto;mix-blend-mode:normal;color-interpolation:sRGB;color-interpolation-filters:linearRGB;solid-color:#000;solid-opacity:1;vector-effect:none;fill:#fff;fill-opacity:1;fill-rule:nonzero;stroke:none;stroke-width:16;stroke-linecap:round;stroke-linejoin:round;stroke-miterlimit:4;stroke-dasharray:none;stroke-dashoffset:0;stroke-opacity:1;color-rendering:auto;image-rendering:auto;shape-rendering:auto;text-rendering:auto;enable-background:accumulate"/><path id="rect835-5" d="M95.875 83.879a12.001 12.001 0 0 0-8.36 20.605l36.887 36.887a47.98 47.98 0 0 0 16.97-16.969l-36.888-36.886a12.001 12.001 0 0 0-8.609-3.637z" style="opacity:1;vector-effect:none;fill:#56595b;fill-opacity:1;fill-rule:evenodd;stroke:none;stroke-width:4;stroke-linecap:round;stroke-linejoin:round;stroke-miterlimit:4;stroke-dasharray:none;paint-order:stroke fill markers"/><rect id="rect835" width="96" height="96" x="48" y="48" ry="48" style="opacity:1;vector-effect:none;fill:#56595b;fill-opacity:1;fill-rule:evenodd;stroke:none;stroke-width:4;stroke-linecap:round;stroke-linejoin:round;stroke-miterlimit:4;stroke-dasharray:none;paint-order:stroke fill markers"/><rect id="rect833" width="88" height="88" x="52" y="52" ry="44" style="opacity:1;vector-effect:none;fill:#fff;fill-opacity:1;fill-rule:evenodd;stroke:none;stroke-width:4;stroke-linecap:round;stroke-linejoin:round;stroke-miterlimit:4;stroke-dasharray:none;paint-order:stroke fill markers"/><rect id="rect829" width="80" height="80" x="56" y="56" ry="40" style="opacity:1;vector-effect:none;fill:#56595b;fill-opacity:1;fill-rule:evenodd;stroke:none;stroke-width:4;stroke-linecap:round;stroke-linejoin:round;stroke-miterlimit:4;stroke-dasharray:none;paint-order:stroke fill markers"/><rect id="rect831" width="72" height="72" x="60" y="60" ry="36" style="opacity:1;vector-effect:none;fill:#fff;fill-opacity:1;fill-rule:evenodd;stroke:none;stroke-width:4;stroke-linecap:round;stroke-linejoin:round;stroke-miterlimit:4;stroke-dasharray:none;paint-order:stroke fill markers"/><path id="rect837" d="M84.758 66.021A31.945 31.945 0 0 0 66.02 84.758l3.747 1.404a27.957 27.957 0 0 1 16.394-16.394l-1.404-3.747z" style="opacity:1;vector-effect:none;fill:#56595b;fill-opacity:1;fill-rule:evenodd;stroke:none;stroke-width:4;stroke-linecap:round;stroke-linejoin:round;stroke-miterlimit:4;stroke-dasharray:none;paint-order:stroke fill markers"/><path id="rect835-5-9" d="M145.396 128.428a47.981 47.981 0 0 1-17.019 16.918l4 4a47.981 47.981 0 0 0 17.02-16.918l-4-4z" style="opacity:1;vector-effect:none;fill:#56595b;fill-opacity:1;fill-rule:evenodd;stroke:none;stroke-width:4;stroke-linecap:round;stroke-linejoin:round;stroke-miterlimit:4;stroke-dasharray:none;paint-order:stroke fill markers"/><path id="rect960" d="M84 116v14.872c1.3.457 2.636.838 4 1.147V116Zm8 0v16.687c1.313.145 2.647.228 4 .228V116Zm8 0v16.69a36.072 36.072 0 0 0 4-.675V116Zm8 0v14.87a35.745 35.745 0 0 0 4-1.68V116Z" style="opacity:1;vector-effect:none;fill:#56595b;fill-opacity:1;fill-rule:evenodd;stroke:none;stroke-width:4;stroke-linecap:round;stroke-linejoin:round;stroke-miterlimit:4;stroke-dasharray:none;paint-order:stroke fill markers"/><path id="path954" d="M75.56 93.56s-3.677-2.84-.204-6.713c2.134-2.379 5.797 1.526 5.797 1.526l8.949 8.034 7.83 1.424 7.83-2.34s4.732 1.636 8.238 6.61c1.508 2.141 2.868 4.704 2.847 7.323-.008.988-1.118 2.745-1.118 2.745s4.236 5.626.813 7.628c-1.082.633-3.559-1.22-3.559-1.22l-2.034 3.559s-5.972 1.731-11.288 1.525c-11.661-.452-13.674-4.652-13.674-4.652s-1.987-10.046.454-16.297c-1.326-2.753-7.017-5.898-7.017-5.898l-.305-1.83z" style="fill:#fff;stroke:#56595b;stroke-width:4;stroke-linecap:round;stroke-linejoin:round;stroke-miterlimit:4;stroke-dasharray:none;stroke-opacity:1"/><path id="path958" d="M112.61 118.796s-1.122-4.13-1.942-5.896c-1.505-3.243-3.236-5.969-3.236-5.969" style="fill:none;stroke:#56595b;stroke-width:4;stroke-linecap:round;stroke-linejoin:round;stroke-miterlimit:4;stroke-dasharray:none;stroke-opacity:1"/><rect id="rect950" width="20" height="20" x="88" y="80" ry="10" style="opacity:1;vector-effect:none;fill:#56595b;fill-opacity:1;fill-rule:evenodd;stroke:none;stroke-width:16;stroke-linecap:round;stroke-linejoin:round;stroke-miterlimit:4;stroke-dasharray:none;paint-order:stroke fill markers"/><path id="rect952" d="M96 84.348A5.98 5.98 0 0 0 92 90a5.98 5.98 0 0 0 4 5.652A5.98 5.98 0 0 0 100 90a5.98 5.98 0 0 0-4-5.652z" style="opacity:1;vector-effect:none;fill:#fff;fill-opacity:1;fill-rule:evenodd;stroke:none;stroke-width:16;stroke-linecap:round;stroke-linejoin:round;stroke-miterlimit:4;stroke-dasharray:none;paint-order:stroke fill markers"/><path id="path1027" d="m79.119 94.983 3.792-4.95" style="fill:none;stroke:#56595b;stroke-width:4;stroke-linecap:round;stroke-linejoin:round;stroke-opacity:1;stroke-miterlimit:4;stroke-dasharray:none"/><path id="path1029" d="M115.729 112.17 112 114.481" style="fill:none;stroke:#56595b;stroke-width:4;stroke-linecap:round;stroke-linejoin:miter;stroke-opacity:1;stroke-miterlimit:4;stroke-dasharray:none"/></svg>
